X:1
T:Boris 40's
C:François Champs
M:4/4
R:hornpipe
K:A
cd |: edce dcBd | cdcB ABAE | F2dc B2BA | GBef edcd |
      edce dcBd | cdcB ABAE | F2CE DFEG | FEcB A2cd :|
|: eaga efed | caga efec | dffe ^dBba | gaba gecd |
   eaga efed | caga efec | dBB2 dcBA | GEcB A2cd :|
